X:14856
T:Sarah Hobbs
R:reel
S:J\"orgen Fischer
H:A version of "Bill Harte's", #350
Z:id:hn-reel-763
M:C|
K:G
DEGA BGGA|BGdG BGGA|DEGA Beed|1 BAAB ~A2GE:|2 BAAB ~A2Bd||
|:eA~A2 Bdeg|dGGD GABd|1 eA~A2 Bdeg|dGGB A2Bd:|2 eg~g2 egge|fedB ABGE||


